X: 42833
T: Widow's Rant
R: jig
M: 6/8
K: Amixolydian
|:c2e ece|fdf ecA|cee fga|BGB B2d|
c2e ece|fdf ecA|cec dBG|ABA A2 [1 a:|2 g]||
|:a2f g2e|fdf ecA|a2f g2a|BGB B2 g|
a2f g2e|fdf ecA|cec dBG|ABA A3:|

